assets/Polar bear/Flat/polar_bear_flat.svg

<svg width="32" height="32" viewBox="0 0 32 32" fill="none" xmlns="http://www.w3.org/2000/svg">
<path d="M4.29171 12.406C2.93898 11.6299 2.02777 10.1714 2.02777 8.5C2.02777 6.01472 4.04249 4 6.52777 4C8.40705 4 10.0173 5.15198 10.6908 6.78831C13.5683 5.59612 16.029 5.7213 16.029 5.7213C16.029 5.7213 18.4884 5.59617 21.365 6.78759C22.0387 5.15164 23.6488 4 25.5278 4C28.0131 4 30.0278 6.01472 30.0278 8.5C30.0278 10.1707 29.1173 11.6288 27.7654 12.4051C29.1146 14.6835 29.6594 16.9815 29.8796 18.4588C29.9759 18.9732 30.0271 19.5025 30.029 20.0438C30.0296 20.0607 30.0296 20.0707 30.0296 20.0707C30.0296 23.5044 28.0415 26.4732 25.1534 27.8894C25.1534 27.8894 22.0284 29.7207 16.0284 29.7207C10.0284 29.7207 6.9034 27.8894 6.9034 27.8894C4.0159 26.4725 2.02777 23.5038 2.02777 20.07C2.02777 20.07 2.0284 20.0613 2.0284 20.045C2.03027 19.5032 2.08152 18.9732 2.17777 18.4588C2.39796 16.9817 2.94301 14.6841 4.29171 12.406Z" fill="#9B9B9B"/>
<path d="M8.89518 7.69455C8.02636 8.2194 7.15754 8.88285 6.34027 9.7213C6.01408 10.056 5.71257 10.3995 5.43387 10.7486C4.60138 10.3429 4.02777 9.48841 4.02777 8.5C4.02777 7.11929 5.14706 6 6.52777 6C7.62668 6 8.55999 6.70902 8.89518 7.69455Z" fill="#636363"/>
<path d="M26.6231 10.7479C26.3446 10.399 26.0432 10.0557 25.7171 9.7213C24.8994 8.88234 24.03 8.21858 23.1607 7.69358C23.4962 6.70856 24.4292 6 25.5278 6C26.9085 6 28.0278 7.11929 28.0278 8.5C28.0278 9.48783 27.4548 10.3418 26.6231 10.7479Z" fill="#636363"/>
<path d="M29.022 19.8758C29.022 19.8758 29.022 19.8666 29.0214 19.8512C29.0196 19.3553 28.9721 18.8704 28.8827 18.3991C28.7195 17.3189 28.3643 15.7599 27.5908 14.1132C27.0054 12.8673 26.1805 11.5712 25.018 10.3945C21.1441 6.47293 16.0231 6.73002 16.0231 6.73002C16.0231 6.73002 10.9015 6.47293 7.02756 10.3945C5.59531 11.8445 4.67544 13.4759 4.08467 14.9713C3.56245 16.2931 3.29739 17.5088 3.16289 18.3991C3.07352 18.8704 3.02594 19.3559 3.0242 19.8523C3.0242 19.8672 3.02362 19.8752 3.02362 19.8752C3.02362 23.021 4.8695 25.7407 7.55039 27.0387C7.55039 27.0387 10.4518 28.7164 16.0225 28.7164C21.5932 28.7164 24.4946 27.0387 24.4946 27.0387C27.1761 25.7413 29.022 23.0215 29.022 19.8758Z" fill="#F4F4F4"/>
<path d="M12.0153 19.1984C11.4009 19.598 11.0278 20.2989 11.0278 21.0533V21.7933C11.0278 24.6687 13.2665 27 16.0278 27C18.789 27 21.0278 24.6687 21.0278 21.7933V21.0533C21.0278 20.2989 20.6546 19.598 20.0403 19.1984C17.5853 17.6005 14.4703 17.6005 12.0153 19.1984Z" fill="white"/>
<path d="M11.0278 15.9687C11.0278 15.4165 11.4755 14.9688 12.0278 14.9688C12.5801 14.9688 13.0278 15.4165 13.0278 15.9688V16.9688C13.0278 17.521 12.5801 17.9688 12.0278 17.9688C11.4755 17.9688 11.0278 17.521 11.0278 16.9688V15.9687Z" fill="#402A32"/>
<path d="M19.0278 15.9687C19.0278 15.4165 19.4755 14.9688 20.0278 14.9688C20.5801 14.9688 21.0278 15.4165 21.0278 15.9688V16.9688C21.0278 17.521 20.5801 17.9688 20.0278 17.9688C19.4755 17.9688 19.0278 17.521 19.0278 16.9688V15.9687Z" fill="#402A32"/>
<path d="M15.5534 20.8194L14.5396 19.9857C14.3752 19.85 14.2796 19.6482 14.2796 19.435C14.2796 19.0413 14.599 18.7219 14.9927 18.7219H17.0665C17.4602 18.7219 17.7796 19.0413 17.7796 19.435C17.7796 19.6482 17.684 19.85 17.5196 19.9857L16.5065 20.8194C16.2296 21.0469 15.8296 21.0469 15.5534 20.8194Z" fill="#402A32"/>
<path d="M16.0278 22C16.0886 22 16.1479 22.0111 16.2033 22.0319C16.2718 22.0575 16.332 22.0971 16.3814 22.1465C16.431 22.196 16.4707 22.2565 16.4963 22.3253C16.504 22.346 16.5104 22.3672 16.5153 22.3888C16.5997 22.7257 16.7114 23.1343 16.9423 23.4621C17.1548 23.7636 17.4687 24.0001 18.0278 24.0001C18.6821 24.0001 19.0278 23.4657 19.0278 23.0001C19.0278 22.724 19.2516 22.5001 19.5278 22.5001C19.8039 22.5001 20.0278 22.724 20.0278 23.0001C20.0278 23.8678 19.3734 25.0001 18.0278 25.0001C17.1025 25.0001 16.4997 24.57 16.1249 24.0381C16.0906 23.9895 16.0583 23.94 16.0278 23.8901C15.9973 23.94 15.9649 23.9895 15.9306 24.0381C15.5558 24.57 14.9531 25.0001 14.0278 25.0001C12.6821 25.0001 12.0278 23.8678 12.0278 23.0001C12.0278 22.724 12.2516 22.5001 12.5278 22.5001C12.8039 22.5001 13.0278 22.724 13.0278 23.0001C13.0278 23.4657 13.3734 24.0001 14.0278 24.0001C14.5868 24.0001 14.9008 23.7636 15.1132 23.4621C15.3442 23.1343 15.4558 22.7257 15.5402 22.3888C15.5452 22.3669 15.5517 22.3455 15.5595 22.3246C15.5851 22.2561 15.6247 22.1959 15.6742 22.1465C15.7235 22.0971 15.7837 22.0575 15.8523 22.0319C15.9076 22.0111 15.9669 22 16.0278 22Z" fill="#402A32"/>
</svg>

<svg xmlns="http://www.w3.org/2000/svg" width="32" height="32" fill="none"><path fill="#9B9B9B" d="M4.292 12.406a4.5 4.5 0 1 1 6.4-5.618c2.876-1.192 5.337-1.067 5.337-1.067s2.46-.125 5.336 1.067a4.501 4.501 0 1 1 6.4 5.617c1.35 2.279 1.894 4.577 2.115 6.054a8.772 8.772 0 0 1 .15 1.612 8.703 8.703 0 0 1-4.877 7.818s-3.125 1.832-9.125 1.832-9.125-1.832-9.125-1.832a8.705 8.705 0 0 1-4.875-7.819v-.025a8.782 8.782 0 0 1 .15-1.586c.22-1.477.765-3.775 2.114-6.053Z"/><path fill="#636363" d="M8.895 7.695A12.801 12.801 0 0 0 6.34 9.72c-.326.335-.627.678-.906 1.028a2.5 2.5 0 1 1 3.461-3.054ZM26.623 10.748c-.278-.349-.58-.692-.906-1.027a12.8 12.8 0 0 0-2.556-2.027 2.501 2.501 0 1 1 3.462 3.054Z"/><path fill="#F4F4F4" d="M29.022 19.876v-.025a7.937 7.937 0 0 0-.14-1.452 15.723 15.723 0 0 0-1.291-4.286 13.332 13.332 0 0 0-2.573-3.718c-3.874-3.922-8.995-3.665-8.995-3.665s-5.121-.257-8.995 3.665c-1.433 1.45-2.353 3.08-2.943 4.576a15.867 15.867 0 0 0-.922 3.428c-.09.471-.137.957-.139 1.453v.023c0 3.146 1.846 5.866 4.526 7.164 0 0 2.902 1.677 8.473 1.677 5.57 0 8.472-1.677 8.472-1.677 2.681-1.298 4.527-4.018 4.527-7.163Z"/><path fill="#fff" d="M12.015 19.198c-.614.4-.987 1.1-.987 1.855v.74c0 2.876 2.239 5.207 5 5.207s5-2.331 5-5.207v-.74c0-.754-.373-1.455-.988-1.855a7.316 7.316 0 0 0-8.025 0Z"/><path fill="#402A32" d="M11.028 15.969a1 1 0 0 1 2 0v1a1 1 0 0 1-2 0v-1ZM19.028 15.969a1 1 0 0 1 2 0v1a1 1 0 0 1-2 0v-1ZM15.553 20.82l-1.013-.834a.714.714 0 0 1 .453-1.264h2.074a.713.713 0 0 1 .453 1.264l-1.014.833a.75.75 0 0 1-.953 0ZM16.028 22a.499.499 0 0 1 .487.389c.085.337.196.745.427 1.073.213.302.527.538 1.086.538.654 0 1-.534 1-1a.5.5 0 1 1 1 0c0 .868-.655 2-2 2-.925 0-1.528-.43-1.903-.962a2.685 2.685 0 0 1-.097-.148c-.03.05-.063.1-.097.148-.375.532-.978.962-1.903.962-1.346 0-2-1.132-2-2a.5.5 0 1 1 1 0c0 .466.345 1 1 1 .559 0 .873-.236 1.085-.538.231-.328.343-.736.427-1.073a.505.505 0 0 1 .312-.357.498.498 0 0 1 .176-.032Z"/></svg>
